resources/svg/regular/bookmark-alt-plus.svg

<svg xmlns="http://www.w3.org/2000/svg" fill="currentColor" stroke="none" viewBox="0 0 24 24"><path d="M18.5 2h-12C4.57 2 3 3.57 3 5.5V22l7-3.5 7 3.5v-9h5V5.5C22 3.57 20.43 2 18.5 2zM15 18.764l-5-2.5-5 2.5V5.5C5 4.673 5.673 4 6.5 4h8.852A3.451 3.451 0 0 0 15 5.5v13.264zM20 11h-3V5.5c0-.827.673-1.5 1.5-1.5s1.5.673 1.5 1.5V11z"/><path d="M11 7H9v2H7v2h2v2h2v-2h2V9h-2z"/></svg>

<svg xmlns="http://www.w3.org/2000/svg" fill="currentColor" stroke="none" viewBox="0 0 24 24"><path d="M18.5,2H15H6.5C4.57,2,3,3.57,3,5.5v1.882v1.971V22l7-3.5l7,3.5v-9h5V5.5C22,3.57,20.43,2,18.5,2z M15,18.764l-5-2.5 l-5,2.5V9.353V7.382V5.5C5,4.673,5.673,4,6.5,4H15h0.352C15.133,4.456,15,4.961,15,5.5v1.882v1.971V18.764z M20,11h-3V9.353V7.382 V5.5C17,4.673,17.673,4,18.5,4S20,4.673,20,5.5V11z"/><path d="M11 7L9 7 9 9 7 9 7 11 9 11 9 13 11 13 11 11 13 11 13 9 11 9z"/></svg>
